images/icons/view-card.svg

<svg width="16" height="14" viewBox="0 0 16 14" fill="none" xmlns="http://www.w3.org/2000/svg"><g clip-path="url(#a)" fill="#000"><path d="M16 12h-16v2h16v-2Zm-2-10v6h-12v-6h12Zm2-2h-16v10h16v-10Z"/></g><defs><clipPath id="a"><path fill="#fff" d="M0 0h16v14h-16z"/></clipPath></defs></svg>

<svg width="16" height="14" viewBox="0 0 16 14" fill="none" xmlns="http://www.w3.org/2000/svg">
<g clip-path="url(#clip0_140107_270)">
<path d="M16 12H0V14H16V12Z" fill="black"/>
<path d="M14 2V8H2V2H14ZM16 0H0V10H16V0Z" fill="black"/>
</g>
<defs>
<clipPath id="clip0_140107_270">
<rect width="16" height="14" fill="white"/>
</clipPath>
</defs>
</svg>
